X: 1
T: Sir Archibald Grant of Monemusk's Reel
C: Danial Dow, c. 1786
R: strathspey
Z: 2014 John Chambers <jc:trillian.mit.edu>
S: PDF image of set for The Brudenell Jig, from George Meikle, 2012
B: Joshua Campbell's Col'n
M: C
L: 1/16
K: G
e2 |\
"G"d3G B3G d3G "C"c3e | "G"d3G B3G "Am"A2BA "D7"c3e |\
"G"d3G B3G Bcd2 d3g | "C"e3c "D7"A3d "G"BG3 G2 :|
f2 |\
"G"g4 d3g B3g "D7"d3f | "G"g3d "C"c3g "G"B3g "D"A3f |\
"G"g3d "C"e3g "G"d3g B3g | "Am"e3c "D7"A3d "G"BG3 G2 |]
f2 |\
"G"g4 d3g B3g "D7"d3f | "G"g3d "C"c3g "G"B3g "D"A3f |\
"G"g3d "C"e3g "G"d3g "C"c3g | "G"B3g "D7"A3c "G"BG3 G2 |]
